Newaita-dark/actions/24/document-edit-sign-encrypt.svg

<svg height="24" viewBox="0 0 24 24" width="24" xmlns="http://www.w3.org/2000/svg"><g fill="#e0e0e0"><path d="m7.9375 4.15625v1.984375h1.984375v-1.984375zm1.984375 1.984375v1.984375h1.984375v-1.984375zm0 1.984375h-1.984375v1.984375h1.984375zm0 1.984375v1.984375h1.984375v-1.984375zm-1.984375-1.984375v-1.984375h-1.984375v1.984375zm-1.984375 1.984375v1.984375h1.984375v-1.984375zm0 0"/><path d="m19.433594 13.789062c-.386719-.390624-1.011719-.390624-1.402344 0l-3.761719 3.761719c-.039062.023438-.078125.050781-.109375.082031l2.128906 2.132813c.035157-.035156.0625-.070313.085938-.109375l3.761719-3.761719c.386719-.390625.386719-1.015625 0-1.402343zm-5.976563 4.546876-.351562.351562c-.042969.046875-.082031.101562-.109375.160156l-1.050782 2.457032c-.183593.425781.25.859374.675782.675781l2.457031-1.054688c.058594-.023437.113281-.0625.160156-.109375l.351563-.347656zm0 0"/><path d="m7.9375 12.09375v1.984375h1.984375v-1.984375zm1.984375 1.984375v1.984375h1.984375v-1.984375zm0 1.984375h-1.984375v1.984375h1.984375zm0 1.984375h1.984375zm-1.984375-1.984375v-1.984375h-1.984375v1.984375zm-1.984375 1.984375v1.984375h1.984375v-1.984375zm0 0"/><path d="m5.953125 2.171875c-1.097656 0-1.984375.886719-1.984375 1.984375v15.875c0 1.101562.886719 1.988281 1.984375 1.988281h3.96875v-1.988281h-2.976563c-.550781 0-.992187-.441406-.992187-.992188v-13.890624c0-.550782.441406-.992188.992187-.992188h3.96875v-.003906h3.5625l3.390626 3.390625v3.558593h-.007813v.492188h1.984375v-.492188h-.003906v-3.96875c0-.261718-.101563-.511718-.289063-.699218l-3.96875-3.96875c-.183593-.183594-.4375-.289063-.699219-.289063h-3.96875v-.003906zm0 0"/></g></svg>

<svg xmlns="http://www.w3.org/2000/svg" xmlns:xlink="http://www.w3.org/1999/xlink" width="24px" height="24px" viewBox="0 0 24 24" version="1.1">
<g id="surface1">
     <defs>
  <style id="current-color-scheme" type="text/css">
   .ColorScheme-Text { color:#eeeeee; } .ColorScheme-Highlight { color:#424242; }
  </style>
 </defs>
<path style="fill:currentColor" class="ColorScheme-Text" d="M 7.9375 4.15625 L 7.9375 6.140625 L 9.921875 6.140625 L 9.921875 4.15625 Z M 9.921875 6.140625 L 9.921875 8.125 L 11.90625 8.125 L 11.90625 6.140625 Z M 9.921875 8.125 L 7.9375 8.125 L 7.9375 10.109375 L 9.921875 10.109375 Z M 9.921875 10.109375 L 9.921875 12.09375 L 11.90625 12.09375 L 11.90625 10.109375 Z M 7.9375 8.125 L 7.9375 6.140625 L 5.953125 6.140625 L 5.953125 8.125 Z M 5.953125 10.109375 L 5.953125 12.09375 L 7.9375 12.09375 L 7.9375 10.109375 Z M 5.953125 10.109375 "/>
     <defs>
  <style id="current-color-scheme" type="text/css">
   .ColorScheme-Text { color:#eeeeee; } .ColorScheme-Highlight { color:#424242; }
  </style>
 </defs>
<path style="fill:currentColor" class="ColorScheme-Text" d="M 19.433594 13.789062 C 19.046875 13.398438 18.421875 13.398438 18.03125 13.789062 L 14.269531 17.550781 C 14.230469 17.574219 14.191406 17.601562 14.160156 17.632812 L 16.289062 19.765625 C 16.324219 19.730469 16.351562 19.695312 16.375 19.65625 L 20.136719 15.894531 C 20.523438 15.503906 20.523438 14.878906 20.136719 14.492188 Z M 13.457031 18.335938 L 13.105469 18.6875 C 13.0625 18.734375 13.023438 18.789062 12.996094 18.847656 L 11.945312 21.304688 C 11.761719 21.730469 12.195312 22.164062 12.621094 21.980469 L 15.078125 20.925781 C 15.136719 20.902344 15.191406 20.863281 15.238281 20.816406 L 15.589844 20.46875 Z M 13.457031 18.335938 "/>
     <defs>
  <style id="current-color-scheme" type="text/css">
   .ColorScheme-Text { color:#eeeeee; } .ColorScheme-Highlight { color:#424242; }
  </style>
 </defs>
<path style="fill:currentColor" class="ColorScheme-Text" d="M 7.9375 12.09375 L 7.9375 14.078125 L 9.921875 14.078125 L 9.921875 12.09375 Z M 9.921875 14.078125 L 9.921875 16.0625 L 11.90625 16.0625 L 11.90625 14.078125 Z M 9.921875 16.0625 L 7.9375 16.0625 L 7.9375 18.046875 L 9.921875 18.046875 Z M 9.921875 18.046875 L 11.90625 18.046875 Z M 7.9375 16.0625 L 7.9375 14.078125 L 5.953125 14.078125 L 5.953125 16.0625 Z M 5.953125 18.046875 L 5.953125 20.03125 L 7.9375 20.03125 L 7.9375 18.046875 Z M 5.953125 18.046875 "/>
     <defs>
  <style id="current-color-scheme" type="text/css">
   .ColorScheme-Text { color:#eeeeee; } .ColorScheme-Highlight { color:#424242; }
  </style>
 </defs>
<path style="fill:currentColor" class="ColorScheme-Text" d="M 5.953125 2.171875 C 4.855469 2.171875 3.96875 3.058594 3.96875 4.15625 L 3.96875 20.03125 C 3.96875 21.132812 4.855469 22.019531 5.953125 22.019531 L 9.921875 22.019531 L 9.921875 20.03125 L 6.945312 20.03125 C 6.394531 20.03125 5.953125 19.589844 5.953125 19.039062 L 5.953125 5.148438 C 5.953125 4.597656 6.394531 4.15625 6.945312 4.15625 L 10.914062 4.15625 L 10.914062 4.152344 L 14.476562 4.152344 L 17.867188 7.542969 L 17.867188 11.101562 L 17.859375 11.101562 L 17.859375 11.59375 L 19.84375 11.59375 L 19.84375 11.101562 L 19.839844 11.101562 L 19.839844 7.132812 C 19.839844 6.871094 19.738281 6.621094 19.550781 6.433594 L 15.582031 2.464844 C 15.398438 2.28125 15.144531 2.175781 14.882812 2.175781 L 10.914062 2.175781 L 10.914062 2.171875 Z M 5.953125 2.171875 "/>
</g>
</svg>
